icons/translate.svg

<svg width="24" height="24" viewBox="0 0 24 24" fill="none" xmlns="http://www.w3.org/2000/svg">
<path fill-rule="evenodd" clip-rule="evenodd" d="M8.99998 2C9.55226 2 9.99998 2.44772 9.99998 3V4H15C15.5523 4 16 4.44772 16 5C16 5.55228 15.5523 6 15 6H13.5779C13.0028 8.68301 11.8617 11.1556 10.2863 13.2862C10.4428 13.4624 10.6032 13.6354 10.7672 13.8052C11.1509 14.2025 11.14 14.8355 10.7427 15.2192C10.3455 15.6029 9.71245 15.592 9.32874 15.1948C9.21762 15.0797 9.10801 14.9634 8.99994 14.8457C7.42895 16.5571 5.54785 17.9797 3.44493 19.0246C2.95033 19.2703 2.35016 19.0686 2.10442 18.574C1.85868 18.0793 2.06042 17.4792 2.55503 17.2334C4.52011 16.2571 6.27005 14.9111 7.71356 13.2862C6.82333 12.0818 6.0767 10.7742 5.49098 9.38958C5.27583 8.88093 5.51375 8.29417 6.0224 8.07901C6.53105 7.86385 7.11781 8.10177 7.33297 8.61042C7.7849 9.67881 8.34389 10.6959 8.99999 11.6467C10.1648 9.95952 11.0321 8.05211 11.5268 6H2.99998C2.44769 6 1.99998 5.55228 1.99998 5C1.99998 4.44772 2.44769 4 2.99998 4H7.99998V3C7.99998 2.44772 8.44769 2 8.99998 2ZM16 10C16.3787 10 16.725 10.214 16.8944 10.5528L21.8944 20.5528C22.1414 21.0468 21.9412 21.6474 21.4472 21.8944C20.9532 22.1414 20.3525 21.9412 20.1056 21.4472L18.8819 19H13.118L11.8944 21.4472C11.6474 21.9412 11.0467 22.1414 10.5528 21.8944C10.0588 21.6474 9.85856 21.0468 10.1055 20.5528L15.1055 10.5528C15.2749 10.214 15.6212 10 16 10ZM14.118 17H17.8819L16 13.2361L14.118 17Z" fill="black"/>
</svg>

<svg
  width="24"
  height="24"
  viewBox="0 0 24 24"
  xmlns="http://www.w3.org/2000/svg"
>
  <path
    fill-rule="evenodd"
    clip-rule="evenodd"
    d="M9 2a1 1 0 0 1 1 1v1h5a1 1 0 1 1 0 2h-1.422a18.92 18.92 0 0 1-3.292 7.286c.157.176.317.35.481.52a1 1 0 1 1-1.438 1.389c-.111-.115-.221-.232-.33-.35a19.056 19.056 0 0 1-5.554 4.18 1 1 0 0 1-.89-1.792 17.058 17.058 0 0 0 5.159-3.947A19.026 19.026 0 0 1 5.49 9.39a1 1 0 0 1 1.842-.78A17.022 17.022 0 0 0 9 11.647 16.911 16.911 0 0 0 11.527 6H3a1 1 0 1 1 0-2h5V3a1 1 0 0 1 1-1zm7 8a1 1 0 0 1 .894.553l5 10a1 1 0 1 1-1.788.894L18.882 19h-5.764l-1.224 2.447a1 1 0 1 1-1.789-.894l5-10A1 1 0 0 1 16 10zm-1.882 7h3.764L16 13.236 14.118 17z"
  />
</svg>
